X:1
T:Devil in the Strawstack
M:C|
L:1/8
K:Gm
"Gm"GFD(F GF)D(F|GF)DF "F"C4|"Gm"GFDF G2 d2-|"Dm"dcA(c dc)Ac|!
"Gm"GFD(F GF)D(F|GF)DF "F"C4|"Gm"GFDF G2 d2-|"Dm"dcA2 "Gm"G4:|]!
"Gm"d2g2g4|gagf d4|"F"fAgA fAgf|"Dm"dcAc d4|!
"Gm"d2g2g4|gagf d4|"F"fA 19b gA fAgf|"Dm"dcA2 "Gm"G4:|]!
